apps/ui-icons/svgs/migration.svg

<svg viewBox="0 0 24 24" width="24" height="24"  fill="none" xmlns="http://www.w3.org/2000/svg">
<path d="M17.72 3.13898C17.4543 2.84209 17.0001 3.05236 17.0001 3.47224V6.00013L15.9991 6.00026C12.6858 6.00068 10.0001 8.68675 10.0001 12C10.0001 14.209 8.20943 15.9997 6.00049 15.9998L3 16L3.00011 18L6.0006 17.9998C9.31406 17.9996 12.0001 15.3135 12.0001 12C12.0001 9.79122 13.7905 8.00054 15.9993 8.00026L17.0001 8.00013V10.5278C17.0001 10.9476 17.4543 11.1579 17.72 10.861L20.8765 7.33326C21.0412 7.1492 21.0412 6.8508 20.8765 6.66675L17.72 3.13898Z" fill="#171D26"/>
<path d="M17.72 13.139C17.4543 12.8421 17.0001 13.0524 17.0001 13.4722V15.9999L15.9994 15.9997C14.7271 15.9996 13.5937 15.4054 12.8612 14.4795C12.6617 15.1651 12.2582 15.7638 11.7207 16.2055C12.8091 17.3127 14.3239 17.9995 15.9991 17.9997L17.0001 17.9999V20.5278C17.0001 20.9476 17.4543 21.1579 17.72 20.861L20.8765 17.3333C21.0412 17.1492 21.0412 16.8508 20.8765 16.6667L17.72 13.139Z" fill="#171D26"/>
<path d="M10.2795 7.7945C9.19109 6.68709 7.67609 6.00026 6.00066 6.00017L3.00017 6L3.00006 8L6.00055 8.00017C7.27293 8.00024 8.40652 8.59442 9.13904 9.52043C9.33851 8.83485 9.74206 8.23616 10.2795 7.7945Z" fill="#171D26"/>
</svg>

<svg xmlns="http://www.w3.org/2000/svg" width="24" height="24" fill="none" viewBox="0 0 24 24">
  <path fill="#171D26" d="M17.72 3.139c-.266-.297-.72-.087-.72.333V6h-1a6 6 0 0 0-6 6 4 4 0 0 1-4 4H3v2h3a6 6 0 0 0 6-6 4 4 0 0 1 4-4h1v2.528c0 .42.454.63.72.333l3.157-3.528a.511.511 0 0 0 0-.666L17.72 3.139Z"/>
  <path fill="#171D26" d="M17.72 13.139c-.266-.297-.72-.087-.72.333V16h-1a3.992 3.992 0 0 1-3.139-1.52 3.504 3.504 0 0 1-1.14 1.726A5.982 5.982 0 0 0 15.999 18H17v2.528c0 .42.454.63.72.333l3.157-3.528a.511.511 0 0 0 0-.666l-3.157-3.528Zm-7.44-5.344A5.981 5.981 0 0 0 6 6H3v2h3c1.273 0 2.407.594 3.139 1.52.2-.685.603-1.284 1.14-1.725Z"/>
</svg>
